Adwaita++-Light/panel/16/btsync-gui-5.svg

<svg height="16" width="16" xmlns="http://www.w3.org/2000/svg">
  <path d="m12.949747 3.0502524c-2.733497-2.73349803-7.1659962-2.73349797-9.8994945.0000001-2.73349802 2.7334979-2.73349819 7.1659975-.0000001 9.8994955 2.7334984 2.733497 7.1659976 2.733498 9.8994956-.000001 2.733498-2.733498 2.733498-7.1659965-.000001-9.8994946zm-1.414213 1.4142137c1.710493 1.7104933 1.922958 4.3521473.636672 6.2935269l.777541.77754-3.5355332.707108.7071062-3.5355341.577286.5772857c.530104-1.1143499.345143-2.4832846-.577285-3.405713-.5054171-.5036392-1.1737917-.8106508-1.8851583-.8659296l-.5358543-1.9970242c1.4267209-.0874946 2.8226706.4398196 3.8352256 1.4487403zm-4.9497476-.7071069-.7071067 3.5355339-.5772868-.5772862c-.5301044 1.1143499-.3451415 2.4832848.5772866 3.4057141.5054158.503638 1.1737914.81065 1.8851583.86593l.5358543 1.997023c-1.4267214.087495-2.8226493-.439842-3.8352259-1.44874-1.7104944-1.7104933-1.9229581-4.3521474-.6366731-6.2935264l-.7775404-.7775415z" fill="#444"/>
</svg>

<svg xmlns="http://www.w3.org/2000/svg" width="16" height="16" version="1.1">
 <defs>
  <style id="current-color-scheme" type="text/css">
   .ColorScheme-Text { color:#444444; } .ColorScheme-Highlight { color:#4285f4; }
  </style>
 </defs>
 <path style="fill:currentColor" class="ColorScheme-Text" d="m 12.949747,3.0502524 c -2.733497,-2.73349803 -7.1659962,-2.73349797 -9.8994945,10e-8 -2.73349802,2.7334979 -2.73349819,7.1659975 -10e-8,9.8994955 2.7334984,2.733497 7.1659976,2.733498 9.8994956,-10e-7 2.733498,-2.733498 2.733498,-7.1659965 -10e-7,-9.8994946 z m -1.414213,1.4142137 c 1.710493,1.7104933 1.922958,4.3521473 0.636672,6.2935269 l 0.777541,0.77754 -3.5355332,0.707108 0.7071062,-3.5355341 0.577286,0.5772857 C 11.22871,8.1700427 11.043749,6.801108 10.121321,5.8786796 9.6159039,5.3750404 8.9475293,5.0680288 8.2361627,5.01275 L 7.7003084,3.0157258 C 9.1270293,2.9282312 10.522979,3.4555454 11.535534,4.4644661 Z M 6.5857864,3.7573592 5.8786797,7.2928931 5.3013929,6.7156069 c -0.5301044,1.1143499 -0.3451415,2.4832848 0.5772866,3.4057141 0.5054158,0.503638 1.1737914,0.81065 1.8851583,0.86593 l 0.5358543,1.997023 C 6.8729707,13.071769 5.4770428,12.544432 4.4644662,11.535534 2.7539718,9.8250407 2.5415081,7.1833866 3.8277931,5.2420076 L 3.0502527,4.4644661 6.5857864,3.7573592 Z"/>
</svg>
